static/img/kroki/7969391ff5fee14a676bc59066e0b4db.svg

<?xml version="1.0" encoding="us-ascii" standalone="no"?><svg xmlns="http://www.w3.org/2000/svg" xmlns:xlink="http://www.w3.org/1999/xlink" contentStyleType="text/css" height="152px" preserveAspectRatio="none" style="width:332px;height:152px;" version="1.1" viewBox="0 0 332 152" width="332px" zoomAndPan="magnify"><defs/><g><!--class aws_q_business_application--><g id="elem_aws_q_business_application"><rect codeLine="23" fill="#3D176E" height="39.7891" id="aws_q_business_application" rx="2.5" ry="2.5" style="stroke:#000D19;stroke-width:0.5;" width="274" x="29" y="7"/><ellipse cx="44" cy="26.8945" fill="#ADD1B2" rx="11" ry="11" style="stroke:#181818;stroke-width:1.0;"/><path d="M46.9688,32.5352 Q46.3906,32.832 45.75,32.9727 Q45.1094,33.1289 44.4063,33.1289 Q41.9063,33.1289 40.5781,31.4883 Q39.2656,29.832 39.2656,26.707 Q39.2656,23.582 40.5781,21.9258 Q41.9063,20.2695 44.4063,20.2695 Q45.1094,20.2695 45.75,20.4258 Q46.4063,20.582 46.9688,20.8789 L46.9688,23.5977 Q46.3438,23.0195 45.75,22.7539 Q45.1563,22.4727 44.5313,22.4727 Q43.1875,22.4727 42.5,23.5508 Q41.8125,24.6133 41.8125,26.707 Q41.8125,28.8008 42.5,29.8789 Q43.1875,30.9414 44.5313,30.9414 Q45.1563,30.9414 45.75,30.6758 Q46.3438,30.3945 46.9688,29.8164 L46.9688,32.5352 Z " fill="#000000"/><text fill="#D9B8FF" font-family="Helvetica" font-size="17" lengthAdjust="spacing" textLength="232" x="63" y="32.7798">aws_q_business_application</text></g><!--class aws_q_business_web_experience--><g id="elem_aws_q_business_web_experience"><rect codeLine="26" fill="#3D176E" height="39.7891" id="aws_q_business_web_experience" rx="2.5" ry="2.5" style="stroke:#000D19;stroke-width:0.5;" width="318" x="7" y="106.79"/><ellipse cx="22" cy="126.6845" fill="#ADD1B2" rx="11" ry="11" style="stroke:#181818;stroke-width:1.0;"/><path d="M24.9688,132.3252 Q24.3906,132.622 23.75,132.7627 Q23.1094,132.9189 22.4063,132.9189 Q19.9063,132.9189 18.5781,131.2783 Q17.2656,129.622 17.2656,126.497 Q17.2656,123.372 18.5781,121.7158 Q19.9063,120.0595 22.4063,120.0595 Q23.1094,120.0595 23.75,120.2158 Q24.4063,120.372 24.9688,120.6689 L24.9688,123.3877 Q24.3438,122.8095 23.75,122.5439 Q23.1563,122.2627 22.5313,122.2627 Q21.1875,122.2627 20.5,123.3408 Q19.8125,124.4033 19.8125,126.497 Q19.8125,128.5908 20.5,129.6689 Q21.1875,130.7314 22.5313,130.7314 Q23.1563,130.7314 23.75,130.4658 Q24.3438,130.1845 24.9688,129.6064 L24.9688,132.3252 Z " fill="#000000"/><text fill="#D9B8FF" font-family="Helvetica" font-size="17" lengthAdjust="spacing" textLength="276" x="41" y="132.5698">aws_q_business_web_experience</text></g><!--link aws_q_business_application to aws_q_business_web_experience--><g id="link_aws_q_business_application_aws_q_business_web_experience"><path codeLine="29" d="M166,47.22 C166,64.36 166,83.27 166,100.41 " fill="none" id="aws_q_business_application-to-aws_q_business_web_experience" style="stroke:#1A83AF;stroke-width:2.0;"/><polygon fill="#1A83AF" points="166,106.41,170,97.41,166,101.41,162,97.41,166,106.41" style="stroke:#1A83AF;stroke-width:2.0;"/></g><!--SRC=[XPB1JeD048RlFCKcd9k0H6al9aZIwAKnrfinP61domROnTcjM8tlRh5gLcZfTVyl_tmpsL9oPDYqTiSQR78auvbAgXO86fOGwIxLjIRc2m4YYeVXKYjx5bX1W-mMwrUqie0XyLZAeb9e3BjmeXiegWtfhUA7UakWp3v2PHqghS6On5gI-TQY8yCN-Lo88JaizICUnbSumZHnf1ya208UBeR8sL6JU_yHQ_cEB7IFjj8MHvgZ4T_Kf6LFE9AZHN_pauxtmBbK6tRfl3qSd4WX_NjVby1rrzC2QkEECHO9jTsrc8wsmiMSY_WeV7SAzeh-T0mwaxra-TR8_kDaqBRrtjvAhTY7vtqUfphCCtnhaIIg0W_WHD7ioG-JUPGidsVNqrNU5m00]--></g></svg>

<svg xmlns="http://www.w3.org/2000/svg" width="332" height="152" viewBox="0 0 332 152"><rect width="274" height="39.789" x="29" y="7" fill="#3D176E" rx="2.5" ry="2.5" style="stroke:#000d19;stroke-width:.5"/><circle cx="44" cy="26.895" r="11" fill="#ADD1B2" style="stroke:#181818;stroke-width:1"/><path d="M46.969 32.535q-.578.297-1.219.438-.64.156-1.344.156-2.5 0-3.828-1.64-1.312-1.657-1.312-4.782t1.312-4.781q1.328-1.656 3.828-1.656.703 0 1.344.156.656.156 1.219.453v2.719q-.625-.578-1.219-.844-.594-.281-1.219-.281-1.343 0-2.031 1.078-.687 1.062-.687 3.156t.687 3.172q.688 1.062 2.031 1.062.625 0 1.219-.265.594-.281 1.219-.86z"/><text x="63" y="32.78" fill="#D9B8FF" font-family="Helvetica" font-size="17" textLength="232">aws_q_business_application</text><rect width="318" height="39.789" x="7" y="106.79" fill="#3D176E" rx="2.5" ry="2.5" style="stroke:#000d19;stroke-width:.5"/><circle cx="22" cy="126.684" r="11" fill="#ADD1B2" style="stroke:#181818;stroke-width:1"/><path d="M24.969 132.325q-.578.297-1.219.438-.64.156-1.344.156-2.5 0-3.828-1.64-1.312-1.657-1.312-4.782t1.312-4.781q1.328-1.656 3.828-1.656.703 0 1.344.156.656.156 1.219.453v2.719q-.625-.579-1.219-.844-.594-.281-1.219-.281-1.343 0-2.031 1.078-.687 1.062-.687 3.156t.687 3.172q.688 1.062 2.031 1.062.625 0 1.219-.265.594-.281 1.219-.86z"/><text x="41" y="132.57" fill="#D9B8FF" font-family="Helvetica" font-size="17" textLength="276">aws_q_business_web_experience</text><path fill="none" d="M166 47.22v53.19" style="stroke:#1a83af;stroke-width:2"/><path fill="#1A83AF" d="m166 106.41 4-9-4 4-4-4z" style="stroke:#1a83af;stroke-width:2"/></svg>
